X: 1
T: Cold Frosty Morning
R: reel
M: 4/4
L: 1/8
K: Ador
EDEGA2A2|ABcde2(3DEF|GABAG2D2|GABcd2D2|
EDEGA2A2|ABcde2ed|cBAc BAGB|A4A4:|
edega2a2|abag e2ef|gfga gfef|gagfe2e2|
A2AAc2cc|d2dde2ee|cBAc BAGB|A4A4:|


Tune 6467	Setting 26145

